src/assets/icons/counts/projects.svg

<?xml version="1.0" encoding="utf-8"?><!-- Uploaded to: SVG Repo, www.svgrepo.com, Generator: SVG Repo Mixer Tools -->
<svg width="32px" height="32px" viewBox="0 0 24 24" fill="none" xmlns="http://www.w3.org/2000/svg">
<path fill-rule="evenodd" clip-rule="evenodd" d="M8.75 2.0127V22L15 22C17.8284 22 19.2426 22 20.1213 21.1213C21 20.2426 21 18.8284 21 16V8C21 5.17157 21 3.75736 20.1213 2.87868C19.2426 2 17.8284 2 15 2H9L8.75 2.0127ZM10.75 6.5C10.75 6.08579 11.0858 5.75 11.5 5.75H16.5C16.9142 5.75 17.25 6.08579 17.25 6.5C17.25 6.91421 16.9142 7.25 16.5 7.25H11.5C11.0858 7.25 10.75 6.91421 10.75 6.5ZM10.75 10C10.75 9.58579 11.0858 9.25 11.5 9.25H16.5C16.9142 9.25 17.25 9.58579 17.25 10C17.25 10.4142 16.9142 10.75 16.5 10.75H11.5C11.0858 10.75 10.75 10.4142 10.75 10ZM3.0007 7.25C3.00753 4.91427 3.08136 3.676 3.87868 2.87868C4.55366 2.2037 5.54467 2.04722 7.25 2.01095V21.9891C5.54467 21.9528 4.55366 21.7963 3.87868 21.1213C3.08136 20.324 3.00753 19.0857 3.0007 16.75H4C4.41421 16.75 4.75 16.4142 4.75 16C4.75 15.5858 4.41421 15.25 4 15.25H3V12.75H4C4.41421 12.75 4.75 12.4142 4.75 12C4.75 11.5858 4.41421 11.25 4 11.25H3V8.75H4C4.41421 8.75 4.75 8.41421 4.75 8C4.75 7.58579 4.41421 7.25 4 7.25H3.0007ZM3.0007 7.25H2C1.58579 7.25 1.25 7.58579 1.25 8C1.25 8.41421 1.58579 8.75 2 8.75H3V8C3 7.73811 3 7.48834 3.0007 7.25ZM3 12.75H2C1.58579 12.75 1.25 12.4142 1.25 12C1.25 11.5858 1.58579 11.25 2 11.25H3V12.75ZM3 15.25H2C1.58579 15.25 1.25 15.5858 1.25 16C1.25 16.4142 1.58579 16.75 2 16.75H3.0007C3 16.5117 3 16.2619 3 16V15.25Z" fill="#be264c"/>
</svg>

<svg width="32" height="32" viewBox="0 0 24 24" fill="none" xmlns="http://www.w3.org/2000/svg"><path fill-rule="evenodd" clip-rule="evenodd" d="M8.75 2.013V22H15c2.828 0 4.243 0 5.121-.879C21 20.243 21 18.828 21 16V8c0-2.828 0-4.243-.879-5.121C19.243 2 17.828 2 15 2H9l-.25.013zm2 4.487a.75.75 0 0 1 .75-.75h5a.75.75 0 0 1 0 1.5h-5a.75.75 0 0 1-.75-.75zm0 3.5a.75.75 0 0 1 .75-.75h5a.75.75 0 0 1 0 1.5h-5a.75.75 0 0 1-.75-.75zM3 7.25c.008-2.336.081-3.574.879-4.371.675-.675 1.666-.832 3.371-.868v19.978c-1.705-.036-2.696-.193-3.371-.868-.798-.797-.871-2.035-.878-4.371H4a.75.75 0 0 0 0-1.5H3v-2.5h1a.75.75 0 0 0 0-1.5H3v-2.5h1a.75.75 0 0 0 0-1.5H3zm0 0H2a.75.75 0 0 0 0 1.5h1v-1.5zm0 5.5H2a.75.75 0 0 1 0-1.5h1v1.5zm0 2.5H2a.75.75 0 0 0 0 1.5h1v-1.5z" fill="#be264c"/></svg>
